src/assets/icons/12-icon-sass.svg

<svg width="65" height="64" viewBox="0 0 65 64" fill="none" xmlns="http://www.w3.org/2000/svg">
<path d="M53.3704 34.6079C51.3197 34.6186 49.5437 35.1106 48.0557 35.8452C47.5117 34.7586 46.9597 33.8026 46.8677 33.0919C46.7597 32.2626 46.6344 31.7666 46.765 30.7786C46.8957 29.7906 47.4677 28.3906 47.4597 28.2852C47.4517 28.1799 47.3317 27.6772 46.149 27.6679C44.9664 27.6599 43.9544 27.8959 43.8357 28.2079C43.717 28.5199 43.489 29.2226 43.3477 29.9559C43.141 31.0279 40.9864 34.8532 39.7637 36.8532C39.3637 36.0719 39.0237 35.3839 38.953 34.8399C38.845 34.0106 38.7197 33.5146 38.8504 32.5266C38.981 31.5386 39.553 30.1386 39.545 30.0332C39.537 29.9279 39.417 29.4252 38.2344 29.4159C37.0517 29.4079 36.0397 29.6439 35.921 29.9559C35.8024 30.2679 35.6744 30.9972 35.433 31.7039C35.1904 32.4092 32.3277 38.7892 31.577 40.4439C31.1944 41.2866 30.8624 41.9639 30.6277 42.4252L30.6264 42.4226C30.6264 42.4226 30.6117 42.4532 30.5877 42.5052C30.3864 42.8986 30.2677 43.1159 30.2677 43.1159C30.2677 43.1159 30.269 43.1186 30.2717 43.1239C30.1117 43.4132 29.941 43.6812 29.857 43.6812C29.7984 43.6812 29.6797 42.9119 29.8824 41.8559C30.309 39.6426 31.3317 36.1919 31.3224 36.0719C31.317 36.0106 31.513 35.4092 30.6544 35.0946C29.8197 34.7892 29.5224 35.2986 29.4464 35.2999C29.373 35.3012 29.3184 35.4799 29.3184 35.4799C29.3184 35.4799 30.2477 31.5986 27.545 31.5986C25.8544 31.5986 23.513 33.4479 22.3597 35.1239C21.6317 35.5212 20.073 36.3719 18.421 37.2799C17.7864 37.6292 17.1384 37.9852 16.5237 38.3239C16.4824 38.2772 16.4397 38.2319 16.397 38.1852C13.1184 34.6879 7.0597 32.2146 7.3157 27.5119C7.40903 25.8026 8.0037 21.3012 18.9597 15.8426C27.9344 11.3706 35.1197 12.6012 36.361 15.3279C38.1344 19.2252 32.521 26.4666 23.201 27.5119C19.6504 27.9106 17.7797 26.5332 17.3144 26.0212C16.825 25.4812 16.7517 25.4572 16.569 25.5586C16.2717 25.7239 16.4597 26.1999 16.569 26.4839C16.8477 27.2079 17.989 28.4919 19.9357 29.1319C21.649 29.6946 25.8184 30.0026 30.8597 28.0519C36.5077 25.8679 40.917 19.7906 39.621 14.7119C38.3037 9.54658 29.7384 7.84791 21.6317 10.7279C16.801 12.4426 11.5784 15.1332 7.82237 18.6452C3.35703 22.8212 2.64503 26.4572 2.93837 27.9759C3.98103 33.3732 11.4197 36.8879 14.3984 39.4919C14.2517 39.5732 14.113 39.6492 13.9877 39.7186C12.4944 40.4572 6.8237 43.4252 5.40503 46.5599C3.7957 50.1159 5.66103 52.6679 6.8957 53.0119C10.721 54.0759 14.6464 52.1612 16.757 49.0146C18.8664 45.8692 18.609 41.7719 17.641 39.9026C17.629 39.8799 17.6157 39.8572 17.6037 39.8332C17.989 39.6052 18.3824 39.3732 18.7717 39.1439C19.5317 38.6972 20.2784 38.2812 20.925 37.9292C20.5624 38.9212 20.297 40.1119 20.1597 41.8306C19.997 43.8492 20.825 46.4586 21.9077 47.4852C22.385 47.9372 22.9584 47.9479 23.321 47.9479C24.581 47.9479 25.1557 46.8999 25.789 45.6599C26.565 44.1399 27.2544 42.3692 27.2544 42.3692C27.2544 42.3692 26.3904 47.1506 28.745 47.1506C29.6037 47.1506 30.4664 46.0372 30.8517 45.4706C30.853 45.4772 30.853 45.4799 30.853 45.4799C30.853 45.4799 30.8757 45.4426 30.9197 45.3692C31.009 45.2332 31.0597 45.1466 31.0597 45.1466C31.0597 45.1466 31.061 45.1372 31.0637 45.1212C31.409 44.5226 32.1744 43.1572 33.321 40.9052C34.8037 37.9959 36.225 34.3506 36.225 34.3506C36.225 34.3506 36.357 35.2412 36.7904 36.7159C37.045 37.5826 37.5864 38.5412 38.0144 39.4612C37.6704 39.9386 37.4597 40.2119 37.4597 40.2119C37.4597 40.2119 37.461 40.2172 37.465 40.2266C37.1904 40.5919 36.8824 40.9852 36.5597 41.3692C35.389 42.7626 33.9957 44.3546 33.809 44.8132C33.589 45.3546 33.641 45.7519 34.0664 46.0732C34.377 46.3066 34.929 46.3439 35.5064 46.3052C36.5584 46.2346 37.297 45.9732 37.6624 45.8146C38.2317 45.6132 38.8944 45.2972 39.5157 44.8399C40.6637 43.9959 41.3557 42.7892 41.289 41.1892C41.2517 40.3079 40.9717 39.4346 40.6157 38.6106C40.7197 38.4612 40.8237 38.3092 40.929 38.1572C42.7384 35.5119 44.1424 32.6052 44.1424 32.6052C44.1424 32.6052 44.2744 33.4959 44.7077 34.9706C44.9264 35.7159 45.3597 36.5306 45.749 37.3279C44.0477 38.7106 42.993 40.3172 42.6264 41.3706C41.949 43.3199 42.4797 44.2026 43.4744 44.4039C43.925 44.4946 44.5624 44.2879 45.041 44.0852C45.637 43.8879 46.353 43.5586 47.0224 43.0666C48.1704 42.2226 49.2744 41.0412 49.2077 39.4426C49.177 38.7146 48.9797 37.9919 48.7117 37.2986C50.1544 36.6972 52.021 36.3639 54.3997 36.6412C59.5024 37.2372 60.5024 40.4226 60.3117 41.7559C60.1197 43.0892 59.0504 43.8226 58.6917 44.0439C58.3344 44.2652 58.225 44.3426 58.2544 44.5066C58.2984 44.7452 58.4637 44.7372 58.769 44.6852C59.189 44.6146 61.4477 43.6012 61.545 41.1399C61.6664 38.0119 58.673 34.5799 53.3704 34.6079ZM14.041 47.8666C12.3504 49.7106 9.99037 50.4066 8.97703 49.8199C7.8837 49.1866 8.31703 46.4719 10.3904 44.5146C11.6544 43.3226 13.2864 42.2239 14.369 41.5479C14.6157 41.3999 14.977 41.1826 15.417 40.9186C15.4904 40.8772 15.5317 40.8546 15.5317 40.8546L15.5304 40.8519C15.6157 40.8012 15.7024 40.7492 15.7917 40.6946C16.5477 43.4799 15.8157 45.9319 14.041 47.8666ZM26.3544 39.4972C25.7664 40.9319 24.5344 44.6039 23.7837 44.4066C23.1397 44.2372 22.7477 41.4466 23.6557 38.6999C24.1117 37.3172 25.0877 35.6652 25.661 35.0239C26.5837 33.9919 27.5997 33.6546 27.8464 34.0732C28.1597 34.6066 26.7237 38.5972 26.3544 39.4972ZM36.5264 44.3506C36.277 44.4812 36.0477 44.5626 35.9424 44.4999C35.8637 44.4532 36.045 44.2812 36.045 44.2812C36.045 44.2812 37.317 42.9119 37.8184 42.2892C38.1104 41.9266 38.4477 41.4959 38.8157 41.0159C38.8184 41.0639 38.8197 41.1119 38.8197 41.1586C38.817 42.7986 37.233 43.9052 36.5264 44.3506ZM44.3624 42.5639C44.1757 42.4319 44.2077 42.0039 44.8197 40.6692C45.0597 40.1452 45.609 39.2639 46.561 38.4212C46.6717 38.7679 46.7384 39.0999 46.737 39.4092C46.725 41.4732 45.253 42.2439 44.3624 42.5639Z" fill="#F06292"/>
</svg>

<svg xmlns="http://www.w3.org/2000/svg" width="65" height="64" fill="none"><path fill="#F06292" d="M53.37 34.6c-2.05.02-3.83.51-5.31 1.25-.55-1.1-1.1-2.05-1.2-2.76-.1-.83-.23-1.32-.1-2.31.14-.99.7-2.39.7-2.5 0-.1-.13-.6-1.31-.61-1.18-.01-2.2.23-2.31.54-.12.31-.35 1.01-.5 1.75-.2 1.07-2.35 4.9-3.58 6.9a7.18 7.18 0 0 1-.8-2.02c-.12-.83-.24-1.33-.11-2.31.13-1 .7-2.4.7-2.5-.01-.1-.13-.6-1.32-.61-1.18-.01-2.19.22-2.3.54-.13.3-.26 1.04-.5 1.74s-3.1 7.09-3.85 8.74c-.39.85-.72 1.52-.95 1.99l-.04.08-.32.6v.01c-.16.3-.33.56-.41.56-.06 0-.18-.77.02-1.82.43-2.22 1.45-5.67 1.44-5.79 0-.06.2-.66-.67-.98-.83-.3-1.13.2-1.2.21-.08 0-.13.18-.13.18s.93-3.88-1.77-3.88c-1.7 0-4.04 1.85-5.19 3.52l-3.94 2.16-1.9 1.04-.12-.13c-3.28-3.5-9.34-5.98-9.08-10.68.09-1.7.68-6.2 11.64-11.67 8.97-4.47 16.16-3.24 17.4-.51 1.77 3.9-3.84 11.14-13.16 12.18-3.55.4-5.42-.98-5.89-1.49-.48-.54-.56-.56-.74-.46-.3.16-.11.64 0 .92.28.73 1.42 2.01 3.37 2.65 1.7.56 5.88.87 10.92-1.08 5.65-2.18 10.06-8.26 8.76-13.34-1.32-5.16-9.88-6.86-17.99-3.98-4.83 1.71-10.05 4.4-13.8 7.92-4.47 4.17-5.18 7.8-4.9 9.33 1.05 5.4 8.49 8.9 11.47 11.51l-.41.23c-1.5.74-7.17 3.7-8.58 6.84-1.61 3.56.25 6.1 1.49 6.45 3.82 1.07 7.75-.85 9.86-4 2.1-3.14 1.85-7.24.88-9.1l-.04-.08 1.17-.69c.76-.44 1.5-.86 2.16-1.21-.37 1-.63 2.18-.77 3.9-.16 2.02.66 4.63 1.75 5.66.48.45 1.05.46 1.41.46 1.26 0 1.84-1.05 2.47-2.29.78-1.52 1.46-3.3 1.46-3.3s-.86 4.8 1.5 4.8c.85 0 1.72-1.12 2.1-1.69v.01l.07-.11.14-.22v-.03c.35-.6 1.11-1.96 2.26-4.21 1.48-2.91 2.9-6.56 2.9-6.56s.14.9.57 2.37c.26.86.8 1.82 1.22 2.74a32.02 32.02 0 0 1-1.45 1.9c-1.17 1.4-2.56 3-2.75 3.45-.22.54-.17.94.26 1.26.3.24.86.27 1.44.24a6.56 6.56 0 0 0 2.15-.5c.57-.2 1.23-.51 1.86-.97a4.12 4.12 0 0 0 1.77-3.65 7.4 7.4 0 0 0-.67-2.58l.3-.45c1.82-2.65 3.22-5.55 3.22-5.55s.13.89.57 2.36c.22.75.65 1.56 1.04 2.36a10.09 10.09 0 0 0-3.12 4.04c-.68 1.95-.15 2.83.84 3.03.45.1 1.1-.11 1.57-.31.6-.2 1.31-.53 1.98-1.02 1.15-.85 2.25-2.03 2.19-3.63a6.8 6.8 0 0 0-.5-2.14c1.44-.6 3.31-.94 5.69-.66 5.1.6 6.1 3.78 5.91 5.12a3.37 3.37 0 0 1-1.62 2.28c-.36.23-.46.3-.44.47.05.24.21.23.52.18.42-.08 2.68-1.09 2.77-3.55.13-3.13-2.87-6.56-8.17-6.53ZM14.04 47.88C12.35 49.7 10 50.4 8.98 49.82c-1.1-.63-.66-3.35 1.41-5.3 1.26-1.2 2.9-2.3 3.98-2.97l1.05-.63.11-.07.26-.16a7.32 7.32 0 0 1-1.75 7.18Zm12.31-8.37c-.58 1.43-1.82 5.1-2.57 4.9-.64-.16-1.03-2.95-.12-5.7a12.7 12.7 0 0 1 2-3.68c.92-1.03 1.94-1.37 2.19-.95.31.54-1.13 4.53-1.5 5.43Zm10.18 4.85c-.25.13-.48.21-.59.15-.08-.05.1-.22.1-.22s1.28-1.37 1.78-2l1-1.26v.14c0 1.64-1.59 2.75-2.3 3.2Zm7.83-1.79c-.18-.13-.15-.56.46-1.9.24-.51.79-1.4 1.74-2.24.11.35.18.68.18.99-.02 2.06-1.49 2.83-2.38 3.15Z"/></svg>
